!!!!SEGMENT: pl-wn--sd-xvi-o-280_anonim--kancjonal-zamoyskich-psalm-dawidow-l-miserere-mei-smiluj-sienade-mna-boze.krn
!!!cenid: 15xx:835
!!!COM: Anonim
!!!COM-rismID:
!!!CDT:
!!!CNT:
!!!GTL: Kancjonał Zamoyskich
!!!OTL: Psalm Dawidów L Miserere mei/Smiłuj się nade mną Boże
!!!PDT: 1558
!!!AGN:
!!!SMS-siglum: PL-Wn
!!!SMS-shelfmark: SD XVI.O.280
!!!SMS-shelfwork: G
!!!SMS-variant:
!!!SMS-altvar:
!!!NIFC-rismSourceID: 990072218
!!!NIFC-islandoraID:
!!!URL-pdf-islandora:
!!!URL-scan: https://polona.pl/item/psalm-dawidow-l-miserere-mei-deus-secu-n-dum-magnam-misericordiam-tuam-etc,MTE3MTY3OA/3/#info:metadata @EN{Scan on Polona} @PL{Skany w portalu Polona}
!!!ONB-nifc: UWAGA: proszę zapisywać tylko teksty występujące bezpośrednio pod nutami
!!!AIN: 1 bass 1 soprn 1 tenor
!!!key: a:aeo
**kern	**text	**mod-text	**mod-text	**kern	**text	**mod-text	**text	**mod-text	**kern	**text	**mod-text	**text	**mod-text
*part3	*part3	*part3	*part3	*part2	*part2	*part2	*part2	*part2	*part1	*part1	*part1	*part1	*part1
*staff3	*staff3	*staff3	*staff3	*staff2	*staff2	*staff2	*staff2	*staff2	*staff1	*staff1	*staff1	*staff1	*staff1
*>[A,A,B,B]	*	*	*	*>[A,A,B,B]	*	*	*	*	*>[A,A,B,B]	*	*	*	*
*>A	*	*	*	*>A	*	*	*	*	*>A	*	*	*	*
*I"BASUS.	*	*	*	*I"TENOR.	*	*	*	*	*I"CANTUS.	*	*	*	*
*mI"Basso	*	*	*	*mI"Tenore	*	*	*	*	*mI"Soprano	*	*	*	*
*I'B	*	*	*	*I'T	*	*	*	*	*I'S	*	*	*	*
*Ibass	*	*	*	*Itenor	*	*	*	*	*Isoprn	*	*	*	*
*ICvox	*	*	*	*ICvox	*	*	*	*	*ICvox	*	*	*	*
*clefF4	*	*	*	*clefC4	*	*	*	*	*clefC2	*	*	*	*
*	*	*	*	*mclefGv2	*	*	*	*	*mclefG2	*	*	*	*
*k[]	*	*	*	*k[]	*	*	*	*	*	*	*	*	*
*a:aeo	*	*	*	*a:aeo	*	*	*	*	*a:aeo	*	*	*	*
*M2/1	*	*	*	*M2/1	*	*	*	*	*M2/1	*	*	*	*
*met(C|)	*	*	*	*met(C|)	*	*	*	*	*met(C|)	*	*	*	*
*mmet(c|)	*	*	*	*mmet(c|)	*	*	*	*	*mmet(c|)	*	*	*	*
=1-	=1-	=1-	=1-	=1-	=1-	=1-	=1-	=1-	=1-	=1-	=1-	=1-	=1-
!	!	!	!	!	!	!	!	!	!LO:TX:t=P:problem:w źródle klucz C2, choć od 2 dźwięku powinien obowiązywać klucz C1 (wpisany w źródle ołówkiem). 	!	!	!	!
0E	.	Zmi-	We-	0E	Smi-	Zmi-	We-	We-	0B	Smi-	Zmi-	We-	We-
=2-	=2-	=2-	=2-	=2-	=2-	=2-	=2-	=2-	=2-	=2-	=2-	=2-	=2-
!!LO:MO:ori
!	!	!	!	!	!	!	!	!	!LO:TX:t=P:problem:editorial cleff	!	!	!	!
!	!	!	!	!	!	!	!	!	!LO:CL:ed	!	!	!	!
*	*	*	*	*	*	*	*	*	*clefC1	*	*	*	*
!!LO:MO:end
1E	.	-łuj	-dle	1G	-łuy	-łuj	-dle	-dle	1b	.	-łuj	.	-dle
1E	.	się	Two-	1G	się	się	twe-	Two-	1b	-łuy	się	-dle	Two-
=3-	=3-	=3-	=3-	=3-	=3-	=3-	=3-	=3-	=3-	=3-	=3-	=3-	=3-
2AA/	.	na-	-je-	1A	na-	na-	-go	-je-	1cc	ſie	na-	two-	-je-
2C/	.	.	.	.	.	.	.	.	.	.	.	.	.
2BB/	.	-de	-go	1B	-de-	-de	wiel-	-go	4dd\	na-	-de	-ie-	-go
.	.	.	.	.	.	.	.	.	4cc\	.	.	.	.
2GG/	.	.	.	.	.	.	.	.	4b\	.	.	.	.
.	.	.	.	.	.	.	.	.	4a\	.	.	.	.
=4-	=4-	=4-	=4-	=4-	=4-	=4-	=4-	=4-	=4-	=4-	=4-	=4-	=4-
2C/	.	mną	wiel-	1c	-mną	mną	-kie-	wiel-	2g\	-de	mną	-go	wiel-
2AA/	.	.	.	.	.	.	.	.	1a	mną	Bo-	wiel-	-kie-
1E	.	Bo-	-kie-	1B	bo-	Bo-	.	-kie-	.	.	.	.	.
!	!	!	!	!	!	!	!	!	!LO:SIC:s=2g#i	!	!	!	!
.	.	.	.	.	.	.	.	.	2g\	bo-	.	-kie-	.
=5-	=5-	=5-	=5-	=5-	=5-	=5-	=5-	=5-	=5-	=5-	=5-	=5-	=5-
2.F\	.	-że	-go	1A	-że	-że	-go	-go	2a\	-że/	-że	-go/	-go
.	.	.	.	.	.	.	.	.	1cc	in-	in-	Mi-	mi-
4G\	.	.	.	.	.	.	.	.	.	.	.	.	.
2A\	.	.	.	2r	.	.	.	.	.	.	.	.	.
1G\	.	in-	mi-	2G/	in-	in-	mi-	mi-	2b\	-ſzyć	.	-ło-	.
=6-	=6-	=6-	=6-	=6-	=6-	=6-	=6-	=6-	=6-	=6-	=6-	=6-	=6-
.	.	.	.	1c	-szyć	-szyć	-ło-	-ło-	1a	mi	-szyć	-ſier-	-ło-
2F\	.	-szyć	-ło-	.	.	.	.	.	.	.	.	.	.
1G	.	mi	-sier-	1B	mi	mi	-ſier-	-sier-	1g	w tym	mi	-dźia	-sier-
*custos:C	*	*	*	*	*	*	*	*	*custos:g	*	*	*	*
!LO:LB:g=original	!	!	!	!	!	!	!	!	!LO:LB:g=original	!	!	!	!
=7-	=7-	=7-	=7-	=7-	=7-	=7-	=7-	=7-	=7-	=7-	=7-	=7-	=7-
1C	.	w_tym	-dzia	1c	w tym	w_tym	-dzia	-dzia	2g/	nie	w_tym	nie-	-dzia
.	.	.	.	.	.	.	.	.	1a	.	.	.	.
2D/	.	nie	nie-	1A	nie	nie	nie-	nie-	.	.	.	.	.
2F\	.	.	.	.	.	.	.	.	2f/	po-	nie	-źmier-	nie-
=8-	=8-	=8-	=8-	=8-	=8-	=8-	=8-	=8-	=8-	=8-	=8-	=8-	=8-
2E\	.	po-	-zmie-	1G	po-	po-	-zmier-	-zmie-	2g/	.	po-	.	-zmie-
2C/	.	.	.	.	.	.	.	.	1e	-mo-	-mo-	-ne-	-rne-
*	*	*	*	*custos:F	*	*	*	*	*	*	*	*	*
!	!	!	!	!LO:LB:g=original	!	!	!	!	!	!	!	!	!
!LO:TX:a:t=P:problem:w źródle błędnie wpisana w tym miejscu repetycja	!	!	!	!	!	!	!	!	!	!	!	!	!
1D	.	-mo-	-rne-	1F	-mo-	-mo-	-ne-	-rne-	.	.	.	.	.
.	.	.	.	.	.	.	.	.	2d/	.	.	.	.
=9-	=9-	=9-	=9-	=9-	=9-	=9-	=9-	=9-	=9-	=9-	=9-	=9-	=9-
!!LO:MO:mod
!! *>A1	*>A1	*>A1	*>A1	*>A1	*>A1	*>A1	*>A1	*>A1	*>A1	*>A1	*>A1	*>A1	*>A1
!!LO:MO:end
!LO:MO:mod=0AA	!	!	!	!LO:MO:mod=0E	!	!	!	!	!LO:MO:mod=0e	!	!	!	!
2.AA/	.	-że.	.	1E	-że.	-że.	-go/	.	1e	-że	-że.	-go	.
!LO:MO:null:mod=.	!	!	!	!	!	!	!	!	!	!	!	!	!
4BB/	.	.	.	.	.	.	.	.	.	.	.	.	.
=:|!|:	=:|!|:	=:|!|:	=:|!|:	=:|!|:	=:|!|:	=:|!|:	=:|!|:	=:|!|:	=:|!|:	=:|!|:	=:|!|:	=:|!|:	=:|!|:
!!LO:MO:mod
!! *>A2	*>A2	*>A2	*>A2	*>A2	*>A2	*>A2	*>A2	*>A2	*>A2	*>A2	*>A2	*>A2	*>A2
!! 2.AA/	.	.	-go.	1E	-że.	.	-go/	-go.	1e	-że	.	-go	-go.
!! 4BB/	.	.	.	.	.	.	.	.	.	.	.	.	.
!!LO:MO:end
*>B	*	*	*	*>B	*	*	*	*	*>B	*	*	*	*
4C/	.	.	.	2r	.	.	.	.	2r	.	.	.	.
4AA/	.	.	.	.	.	.	.	.	.	.	.	.	.
!	!	!	!	!LO:TX:b:B:t=Repetitur.:mod=	!	!	!	!	!LO:TX:a:B:t=Repetitur.:mod=	!	!	!	!
!LO:TX:a:t=P:problem:brak podwójnej kreski pseudotaktowej z repetycją; w źródle wpisana błędnie w innym miejscu	!	!	!	!	!	!	!	!	!	!	!	!	!
2C/	.	I	.	2E/	y	I	.	.	2e/	I	I	.	.
=10-	=10-	=10-	=10-	=10-	=10-	=10-	=10-	=10-	=10-	=10-	=10-	=10-	=10-
2D/	.	te-	.	1A	te-	te-	.	.	2f/	te-	te-	.	.
2.AA/	.	-że	.	.	.	.	.	.	2e/	.	.	.	.
.	.	.	.	1A	-że	-że	.	.	2c/	-że	-że	.	.
4BB/	.	.	.	.	.	.	.	.	.	.	.	.	.
4C/	.	.	.	.	.	.	.	.	1cc\	pod-	po-	.	.
4AA/	.	.	.	.	.	.	.	.	.	.	.	.	.
*custos:C	*	*	*	*	*	*	*	*	*	*	*	*	*
!LO:LB:g=original	!	!	!	!	!	!	!	!	!	!	!	!	!
=11-	=11-	=11-	=11-	=11-	=11-	=11-	=11-	=11-	=11-	=11-	=11-	=11-	=11-
4C/	.	.	.	1G	po-	po-	.	.	.	.	.	.	.
4D/	.	.	.	.	.	.	.	.	.	.	.	.	.
2E/	.	po-	.	.	.	.	.	.	2b\	.	.	.	.
2F\	.	-dług	.	1c	-dług	-dług	.	.	1a	-ług	-dług	.	.
2A\	.	.	.	.	.	.	.	.	.	.	.	.	.
=12-	=12-	=12-	=12-	=12-	=12-	=12-	=12-	=12-	=12-	=12-	=12-	=12-	=12-
2G\	.	wiel-	.	2B\	wiel-	wiel-	.	.	2d/	wiel-	wiel-	.	.
2E\	.	.	.	2G/	-ko-	.	.	.	1g	-ko-	-ko-	.	.
1D	.	-ko-	.	1A	.	-ko-	.	.	.	.	.	.	.
*	*	*	*	*	*	*	*	*	*custos:f	*	*	*	*
!	!	!	!	!	!	!	!	!	!LO:LB:g=original	!	!	!	!
!	!	!	!	!	!	!	!	!	!LO:SIC:s=2f#i	!	!	!	!
.	.	.	.	.	.	.	.	.	2f/	.	.	.	.
=13-	=13-	=13-	=13-	=13-	=13-	=13-	=13-	=13-	=13-	=13-	=13-	=13-	=13-
1GG	.	-ści	.	1G	-ſci/	-ści	.	.	1g	-ſci	-ści	.	.
2r	.	.	.	2r	.	.	.	.	2r	.	.	.	.
2C/	.	zmi-	.	2G/	ſmi-	zmi-	.	.	2g/	ſmi-	zmi-	.	.
=14-	=14-	=14-	=14-	=14-	=14-	=14-	=14-	=14-	=14-	=14-	=14-	=14-	=14-
2.C/	.	-ło-	.	1c	-ło-	-ło-	.	.	1g	-ło-	-ło-	.	.
4D/	.	.	.	.	.	.	.	.	.	.	.	.	.
1E	.	-wa-	.	1G	-wa-	-wa-	.	.	1g	-wa-	-wa-	.	.
*	*	*	*	*custos:A	*	*	*	*	*	*	*	*	*
!	!	!	!	!LO:LB:g=original	!	!	!	!	!	!	!	!	!
=15-	=15-	=15-	=15-	=15-	=15-	=15-	=15-	=15-	=15-	=15-	=15-	=15-	=15-
2.AA/	.	-nia	.	1A	-nia	-nia	.	.	2e/	-nia	-nia	.	.
.	.	.	.	.	.	.	.	.	2a\	twey	.	.	.
4BB/	.	.	.	.	.	.	.	.	.	.	.	.	.
2C/	.	.	.	2E/	twey	Twej	.	.	2g/	.	Twej	.	.
2D/	.	Twej	.	1A\	mi-	.	.	.	1f/	mi-	.	.	.
*custos:AA	*	*	*	*	*	*	*	*	*	*	*	*	*
!LO:LB:g=original	!	!	!	!	!	!	!	!	!	!	!	!	!
=16-	=16-	=16-	=16-	=16-	=16-	=16-	=16-	=16-	=16-	=16-	=16-	=16-	=16-
2AA/	.	mi-	.	.	.	.	.	.	.	.	.	.	.
2C/	.	-ło-	.	2G/	-ło-	mi-	.	.	1e	-ło-	mi-	.	.
1D	.	-ści	.	1F	.	-ło-	.	.	.	.	.	.	.
.	.	.	.	.	.	.	.	.	2d/	.	-ło-	.	.
=17-	=17-	=17-	=17-	=17-	=17-	=17-	=17-	=17-	=17-	=17-	=17-	=17-	=17-
2r	.	.	.	1E	-sſci/	-ści	.	.	1e	-ſci/	-ści	.	.
2AA/	.	zgładź	.	.	.	.	.	.	.	.	.	.	.
1.C	.	wszy-	.	2r	.	.	.	.	2r	.	.	.	.
.	.	.	.	2E/	zgładź	zgładź	.	.	2e/	zgładź	zgładź	.	.
=18-	=18-	=18-	=18-	=18-	=18-	=18-	=18-	=18-	=18-	=18-	=18-	=18-	=18-
.	.	.	.	1A	wszy-	wſzy-	.	.	1e	wſzy-	wſzy-	.	.
2AA/	.	tkę	.	.	.	.	.	.	.	.	.	.	.
1D	.	nie-	.	1A	-tkę	-tkę	.	.	1f	-tkę	-tkę	.	.
=19-	=19-	=19-	=19-	=19-	=19-	=19-	=19-	=19-	=19-	=19-	=19-	=19-	=19-
1GG	.	-pra-	.	1G	nie-	nie-	.	.	2d/	nie-	nie-	.	.
*	*	*	*	*	*	*	*	*	*custos:g	*	*	*	*
!	!	!	!	!	!	!	!	!	!LO:LB:g=original	!	!	!	!
.	.	.	.	.	.	.	.	.	2.g/	-pra-	-pra-	.	.
1C	.	-wość	.	1E	-pra-	-pra-	.	.	.	.	.	.	.
.	.	.	.	.	.	.	.	.	4f/	.	.	.	.
.	.	.	.	.	.	.	.	.	2e/	.	.	.	.
=20-	=20-	=20-	=20-	=20-	=20-	=20-	=20-	=20-	=20-	=20-	=20-	=20-	=20-
2r	.	.	.	2F/	-wo-	-wość	.	.	2d/	wo-	.	.	.
2C/	.	mo-	.	2E/	-ſc	.	.	.	1c	-ſc	-wość	.	.
*	*	*	*	*custos:D	*	*	*	*	*	*	*	*	*
!	!	!	!	!LO:LB:g=original	!	!	!	!	!	!	!	!	!
1GG	.	-ję	.	1D	mo-	mo-	.	.	.	.	.	.	.
.	.	.	.	.	.	.	.	.	2B/	mo-	mo-	.	.
=21-	=21-	=21-	=21-	=21-	=21-	=21-	=21-	=21-	=21-	=21-	=21-	=21-	=21-
2.C/	.	o-	.	1C	-ię/	-ję	.	.	1c	-ie/	-ję	.	.
4D/	.	.	.	.	.	.	.	.	.	.	.	.	.
4E/	.	.	.	2r	.	.	.	.	2r	.	.	.	.
4F\	.	.	.	.	.	.	.	.	.	.	.	.	.
2.G\	.	.	.	2C/	o-	o-	.	.	2c/	o-	o-	.	.
=22-	=22-	=22-	=22-	=22-	=22-	=22-	=22-	=22-	=22-	=22-	=22-	=22-	=22-
.	.	.	.	1G	-ka-	-ka-	.	.	2d/	.	-ka-	.	.
4F\	.	.	.	.	.	.	.	.	.	.	.	.	.
2E\	.	.	.	.	.	.	.	.	2e/	ka-	.	.	.
!LO:LB:g=original	!	!	!	!	!	!	!	!	!	!	!	!	!
2D/	.	-ka-	.	1A	-ży	-ży	.	.	1f	.	-ży	.	.
2F\	.	-ży	.	.	.	.	.	.	.	.	.	.	.
=23-	=23-	=23-	=23-	=23-	=23-	=23-	=23-	=23-	=23-	=23-	=23-	=23-	=23-
1E	.	w_tym	.	1B	w tym	w_tym	.	.	1g	-ży	w_tym	.	.
2.AA/	.	ła-	.	1c	ła-	.	.	.	2.a\	w tym	ła-	.	.
4BB/	.	.	.	.	.	.	.	.	4g\	.	.	.	.
*	*	*	*	*	*	*	*	*	*custos:c	*	*	*	*
!	!	!	!	!	!	!	!	!	!LO:LB:g=original	!	!	!	!
=24-	=24-	=24-	=24-	=24-	=24-	=24-	=24-	=24-	=24-	=24-	=24-	=24-	=24-
1C	.	-skę	.	1G	-ske	ła-	.	.	2e/	ła-	.	.	.
.	.	.	.	.	.	.	.	.	2g\	-ſke	.	.	.
1AA	.	swo-	.	1A	swo-	-skę	.	.	2f/	swo-	.	.	.
.	.	.	.	.	.	.	.	.	1e/	.	-skę	.	.
=25-	=25-	=25-	=25-	=25-	=25-	=25-	=25-	=25-	=25-	=25-	=25-	=25-	=25-
0D	.	-ję.	.	0F	.	swo-	.	.	.	.	.	.	.
.	.	.	.	.	.	.	.	.	4d/	.	.	.	.
.	.	.	.	.	.	.	.	.	4c/	.	.	.	.
.	.	.	.	.	.	.	.	.	1d	.	swo-	.	.
=26-	=26-	=26-	=26-	=26-	=26-	=26-	=26-	=26-	=26-	=26-	=26-	=26-	=26-
2r	.	.	.	[0El	-ie.	-ję.	-.	.	[0el	-ie.	-ję.	.	.
2.AA/	.	ła-	.	.	.	.	.	.	.	.	.	.	.
4BB/	.	.	.	.	.	.	.	.	.	.	.	.	.
4C/	.	.	.	.	.	.	.	.	.	.	.	.	.
4AA/	.	.	.	.	.	.	.	.	.	.	.	.	.
=27-	=27-	=27-	=27-	=27-	=27-	=27-	=27-	=27-	=27-	=27-	=27-	=27-	=27-
4C/	.	.	.	0E_	.	.	.	.	0e_	.	.	.	.
4D/	.	.	.	.	.	.	.	.	.	.	.	.	.
4E/	.	.	.	.	.	.	.	.	.	.	.	.	.
4F\	.	.	.	.	.	.	.	.	.	.	.	.	.
2.G\	.	-skę	.	.	.	.	.	.	.	.	.	.	.
4E\	.	swo-	.	.	.	.	.	.	.	.	.	.	.
=28-	=28-	=28-	=28-	=28-	=28-	=28-	=28-	=28-	=28-	=28-	=28-	=28-	=28-
!LO:SIC:s=0E;	!	!	!	!LO:SIC:s=0E;]	!	!	!	!	!LO:SIC:s=0e;]	!	!	!	!
0El\	.	-ję.	.	0E]	.	.	.	.	0e]	.	.	.	.
==	==	==	==	==	==	==	==	==	==	==	==	==	==
*-	*-	*-	*-	*-	*-	*-	*-	*-	*-	*-	*-	*-	*-
!!!system-decoration: [(*)]
!!LO:MO:ori
!!!RDF**kern: l = terminal long
!!LO:MO:mod
!! !!!RDF**kern: i = editorial accidental
!!LO:MO:end
!!!filter-modern: shed -e "s/TX(.*):t=P:/tx$1:t=P:/LG" | shed -e "s/^custos:/Xcustos:/I" | sic -sq | modori -m | autostem -r | tie -s | humtr -p | shed -e "s/-//B"
!!!ENC: Berenika Jozajtis
!!!END: 2022-05-01
!!!ENC: Wojciech Jakubiak-Danek
!!!END: 2022-05-10
!!!ENC-modern: Andrzej Kubiczek
!!!END-modern: 2022-07-28
